X: 4435
T: "QUEEN OF THE NIGHT" WALTZ
C: Henry Laski
R: Waltz
%R: waltz
B: James Kerr "Merry Melodies" v.4 p.49 #435
Z: 2016 John Chambers <jc:trillian.mit.edu>
M: 3/4
L: 1/4
K: D
|:!p!\
(F3- | FCD) | (c3 | B3) | (A3- | AG^D) | (F3 | E3) |\
[1 z(DF) | (BdB) | (f3- | fed) | (cdc) | (BF^G) | (A3- | A^G=G) :|\
[2 z(DE) | (FGA) | (B2d) | (c2B) | A^GA |
(B2c) | d3- | d!ff!ef |:\
"^>"g3 | "^>"g3 | (fa)a | z!p!.aa | (bd')d' | zc'b | (a.f)f | z!ff!aa | "^>"a3 | "^>"a3 |\
(gb)b | zag | (fa)a | (ea)a |[1 d3- | def :|[2 dzc | dzz |]

%%sep 1 1 500
%%sep 1 1 500

